src/main/resources/icons/AllIcons/actions/quickfixBulb.svg

<!-- Copyright 2000-2021 JetBrains s.r.o. Use of this source code is governed by the Apache 2.0 license that can be found in the LICENSE file. -->
<svg xmlns="http://www.w3.org/2000/svg" width="16" height="16" viewBox="0 0 16 16">
  <g fill="none" fill-rule="evenodd">
    <rect width="6" height="1" x="5" y="12" fill="#6E6E6E"/>
    <path fill="#6E6E6E" d="M5.5,14 L10.5,14 L10.5,14 C10.5,14.5522847 10.0522847,15 9.5,15 L6.5,15 C5.94771525,15 5.5,14.5522847 5.5,14 Z"/>
    <path fill="#DB5860" d="M13,5.2 C13,9.2 11,8.96875 11,11 L5,11 C5,9.03125 3,9.2 3,5.2 C3,2.991 5.23878906,1 8,1 C10.76125,1 13,2.99103125 13,5.2 Z M7,3 L7,7 L9,7 L9,3 L7,3 Z M7,8 L7,10 L9,10 L9,8 L7,8 Z"/>
  </g>
</svg>

<svg xmlns="http://www.w3.org/2000/svg" width="16" height="16" viewBox="0 0 16 16"><rect id="frame" width="16" height="16" fill="none"/><g fill="none" fill-rule="evenodd"><path fill="#6E6E6E" d="M5 12h6v1H5z"/><path fill="#6E6E6E" d="M5.5 14h5a1 1 0 0 1-1 1h-3a1 1 0 0 1-1-1z"/><path fill="#DB5860" d="M13 5.2c0 4-2 3.769-2 5.8H5c0-1.969-2-1.8-2-5.8C3 2.991 5.239 1 8 1s5 1.991 5 4.2zM7 3v4h2V3H7zm0 5v2h2V8H7z"/></g></svg>
